X:14833
T: Samiotissa
T: Girl from Samos
O: Greece
R: kalamatianos
Z: John Chambers <jc@eddie.mit.edu> http://eddie.mit.edu/~jc/music/
N: The lower line should be considered the melody.
N: The instrumental interlude here is a "generic" interlude used in much Greek music.
M: 7/8
L: 1/8
K: G
P: Instr:
|: z[ge][fd][ec] || "D7"[d2B][dB] [cA][BG] [cA][dB] | "G"[B2G][cA] [dB][ge][fd][ec] \
| "D7"[d2B][dB] [cA][BG] [cA][dB] | "G"[B3G] :|
P: Vocal:
|: [D2G] || "G"[G2B][FA] [G2B] [A2c] | [B2d][Ac] [G4B] \
